/* XPM */
static char *product_logo_32[] = {
/* columns rows colors chars-per-pixel */
"32 32 193 2 ",
"   c None",
".  c #1E1D1F",
"X  c #231F21",
"o  c #152A3E",
"O  c #2C2B2D",
"+  c #272425",
"@  c #2E2E32",
"#  c #332F30",
"$  c #22313E",
"%  c #353234",
"&  c #38373A",
"*  c #127F18",
"=  c #366E3B",
"-  c #2F6C33",
";  c #313B45",
":  c #243C50",
">  c #443F40",
",  c #36434C",
"<  c #3B434A",
"1  c #3D5E41",
"2  c #294656",
"3  c #3A4B54",
"4  c #3C5059",
"5  c #2C434E",
"6  c #3C6653",
"7  c #31794D",
"8  c #174C78",
"9  c #274E6B",
"0  c #395364",
"q  c #295975",
"w  c #345974",
"e  c #346579",
"r  c #38677A",
"t  c #36697D",
"y  c #3A697D",
"u  c #356376",
"i  c #347472",
"p  c #48474B",
"a  c #464D55",
"s  c #5B5B59",
"d  c #575558",
"f  c #635F5F",
"g  c #436A5C",
"h  c #5C7659",
"j  c #556E52",
"k  c #62705E",
"l  c #62665C",
"z  c #465C66",
"x  c #545C75",
"c  c #59646A",
"v  c #406D7F",
"b  c #4E6573",
"n  c #4F746E",
"m  c #6A6A65",
"M  c #72786D",
"N  c #737A74",
"B  c #787373",
"V  c #6B6E66",
"C  c #807E7B",
"Z  c #16821B",
"A  c #19851E",
"S  c #1C8622",
"D  c #1E8923",
"F  c #218B26",
"G  c #248D29",
"H  c #298E2E",
"J  c #27902C",
"K  c #29922E",
"L  c #3A893C",
"P  c #2D9432",
"I  c #319336",
"U  c #329836",
"Y  c #349239",
"T  c #369B3A",
"R  c #399E3E",
"E  c #39943E",
"W  c #27843E",
"Q  c #3AA03F",
"!  c #33894A",
"~  c #3D9541",
"^  c #3E9B46",
"/  c #3DA141",
"(  c #419946",
")  c #469B4B",
"_  c #499C4D",
"`  c #4C9E51",
"'  c #4D8E51",
"]  c #43A346",
"[  c #47A74B",
"{  c #54AD57",
"}  c #53AC57",
"|  c #529467",
" . c #7D877C",
".. c #67957D",
"X. c #65B468",
"o. c #76BE78",
"O. c #84857F",
"+. c #1B5985",
"@. c #0C5594",
"#. c #094A87",
"$. c #205C83",
"%. c #1B608E",
"&. c #16649A",
"*. c #3A6E83",
"=. c #3C7185",
"-. c #276A99",
";. c #095AAB",
":. c #0D5FB7",
">. c #1166A9",
",. c #1165B8",
"<. c #1174B6",
"1. c #2474AA",
"2. c #426E81",
"3. c #427184",
"4. c #427589",
"5. c #4A7A8D",
"6. c #497789",
"7. c #557B8B",
"8. c #557F91",
"9. c #4A6998",
"0. c #1579C4",
"q. c #2574D3",
"w. c #387FDF",
"e. c #2272C5",
"r. c #598192",
"t. c #618695",
"y. c #638A9B",
"u. c #6A8997",
"i. c #738A98",
"p. c #6C909F",
"a. c #7C8F88",
"s. c #7C9AA7",
"d. c #1580C6",
"f. c #3386D3",
"g. c #3B87E1",
"h. c #578ACF",
"j. c #6393D2",
"k. c #478BE4",
"l. c #4696E5",
"z. c #5798E8",
"x. c #609DE2",
"c. c #65A4E9",
"v. c #6BAAEB",
"b. c #68A7EB",
"n. c #7CB8EB",
"m. c #8A8886",
"M. c #8A9388",
"N. c #9A9896",
"B. c #908B8A",
"V. c #A29E9C",
"C. c #96AC98",
"Z. c #9AB59E",
"A. c #8AB08E",
"S. c #A7A39E",
"D. c #849AA4",
"F. c #90A5AD",
"G. c #9CB8A6",
"H. c #99ADB5",
"J. c #91ACB7",
"K. c #AAA9A4",
"L. c #A1B7A1",
"P. c #B6B7B9",
"I. c #B1ADAD",
"U. c #93CC95",
"Y. c #8ECA90",
"T. c #9ED1A0",
"R. c #A8C9A9",
"E. c #B8C0AF",
"W. c #B9C6B6",
"Q. c #B4D5B5",
"!. c #B8DBB9",
"~. c #AAD7AC",
"^. c #C7C6BB",
"/. c #CCD0BE",
"(. c #A4B9C2",
"). c #A8BCC4",
"_. c #B3BFC4",
"`. c #82BDED",
"'. c #B1C3CA",
"]. c #CED0C0",
"[. c #D6D5C4",
"{. c #D8D7C5",
"}. c #DAD9C6",
"|. c #D4D5CB",
" X c #DCDBCA",
".X c #DDDDD4",
"XX c #E0DFD0",
"oX c #DFE2D8",
"OX c #E0E0CF",
"+X c #E2E2D2",
"@X c #EAE9DE",
"#X c #E5E5DB",
"$X c #EAE9E1",
/* pixels */
"                        6.5.5.5.5.6.4.4.                        ",
"                  =.4.5.5.4.=.*.*.*.3.4.4.=.=.                  ",
"                4.y.y.*.t e e e e e e t *.*.=.=.                ",
"            C z r.F.8.e e e r r r r e e e t y *.*.=.            ",
"          [.m c p.2.e y 2.6.8.t.t.r.6.2.r e e t *.*.*.          ",
"         X}.B N.s.r 2.7.s.(.'.'.'.'.(.s.7.v e e t *.*.*.        ",
"      OX+X@XN.I.D.3.t.H.'.D.n z z b i.).(.u.2.e e t *.*.*.      ",
"    +XOX+X@X^.V.P.u.(.H.z < a x d p , 0 F.'.u.2.e e t *.*.      ",
"    +XOX+X+X XK.P._.H.4 p x h.x.j.9.w 0 4 F.).r.y e t *.*.i     ",
"  +X+X X X X X/.S.P.c a 9.h.z.v.v.c.f.>.9 4 u.7.u q u t *.i W   ",
"  +XOX X X}.{.}.^.V.a.-.f.k.c.n.n.b.l.0.+.< a 3 , 5 2 2 q t !   ",
"  +XOX X X{.{.}..XB.i.1.e.g.c.`.`.b.l.d.%., m.C. .m s p p g ^   ",
"+X+X X X}.{.{. X.XC b -.,.q.z.c.c.k.q.<.$.& V !.X.) ' h l h ^ D ",
"+XOX X X}.{.{. XXXC a q >.0.g.k.w.q.;.&.9 @ s Q.X./ Q T L L H A ",
"+XOX X}.{.{.{.}.#Xm.p : %.<.0.,.:.;.@.8 ; + s Q.X.Q R T P G S Z ",
"OXOX X{.{.{.{.{.@XK.d @ 2 $.&.@.#.8 9 ; O + V Q.{ Q R T P G F Z ",
" X X{.{.{.{.{.{.+X|.B & % ; 2 : o $ & % + # M.T.[ / R U P G G A ",
" X X{.{.{.{.{.{.{.$XI.s % % % O . O % % # s R.o./ / R U K G S Z ",
"{. X{.{.{.{.{.[.[..X$XK.f > % % O # % & s Z.U.[ / R T P J G A * ",
"{.}.{.{.{.[.[.{.{.{.+X$X^.m.m d p p s  .R.U.} / / R U P G F Z * ",
"  {.}.[.[.[.{.{.{.{.{.XXoXI.B N C.L.~.~.Y.[ / / R T P K F S Z   ",
"  {.}.{.{.{.{.{.{.{.{.P.M.V h A.T.Y.o.{ ] / / R T U P G D Z G   ",
"   X}.}.{.{.{.{.{.[.L. .m j ] [ [ ] ] / / / R T U P G F S D Y   ",
"     X X}.{.{.{./.A.N l ' / / / / / / / R R T U P J F S S I     ",
"       X}.{.[.].a.N k L R R / / / / R R R T U P J F D S I ~     ",
"       X|.|.|.E.6 k ~ U T T R R R R T T U P K G D A S Y ~       ",
"        |.|.|.W.g 1 H P P U U U U U P P K J G D A G E (         ",
"          |.|.|.Z.6 - G J K K K K K J G G F D G Y ( (           ",
"            |.|.|.C.6 - F D F F F F D F G P Y ( ) (             ",
"              |. X XG.g 1 Y I P P I Y ~ ( _ _ ) )               ",
"                   X.XW...7 ! _ ` ` ` _ ` _ _                   ",
"                        |.G...| ` ` ` `                         "
};
